X:1
T:Title
%%score ( 1 2 ) { 3 | 4 }
L:1/8
M:4/4
K:G
V:1 treble nm="Bright Piano"
V:2 treble 
V:3 bass nm="Bright Piano"
V:4 bass 
V:1
 z4 z2[Q:1/4=100] D2 | [DB]2 [DB]2 BAGF | [DA]4 [DG]2 [EG][CE] | [B,D]2 [B,G]2 [DA]2 [Fc]2 | %4
 [DB]4 z2 D2 | [DB]2 [DB]2 [Dd]2 ^cB | B2 A2 [DF]2 [DF]2 | [EB]2 [EA]2 [^CG]2 [CE]2 | %8
 D4 z2 D[^CE] | [DF]3 [D=F] [D^F]2 [DG]2 | [FA]4 [DF]2 FG | [FA]3 [=F^G] [^FA]2 [GB]2 | %12
 [Fc]4 z2 D2 | [DB]2 [DB]2 BAGF | [DA]4 [DG]2 [Ec]2 | [DB]2 [B,G]2 GFEF |[M:3/4] [B,G]4 z2 |] %17
V:2
 x8 | z4 D2 D2 | x8 | x8 | x8 | z4 z2 D2 | D4 z4 | x8 | x8 | x8 | z4 z2 D2 | x8 | x8 | z4 D2 D2 | %14
 x8 | z4 C2 C2 |[M:3/4] x6 |] %17
V:3
 z4 z2 D,2 | G,2 G,2 G,A,B,C | C4 B,2 G,2 | G,2 G,2 F,2 A,2 | G,4 z2 D,2 | G,2 G,2 G,2 G,2 | %6
 F,4 A,2 A,2 | ^C2 C2 A,2 G,2 | F,4 z2 F,G, | A,3 ^G, A,2 B,2 | C4 A,2 CB, | C3 B, C2 B,2 | %12
 A,4 z2 D,2 | G,2 G,2 G,A,B,C | C4 B,2 G,2 | G,2 G,2 A,2 A,2 |[M:3/4] G,4 z2 |] %17
V:4
 z8 | G,,2 B,,2 D,2 D,2 | G,4 G,2 C,2 | D,2 D,2 D,2 D,2 | z8 | G,,2 G,,2 B,,2 G,,2 | %6
 A,,4 A,,2 A,,2 | A,,2 A,,2 A,,2 A,,2 | D,4 z2 D,2 | D,3 D, D,2 D,2 | D,4 D,2 D,2 | %11
 D,3 D, D,2 D,2 | D,4 z4 | G,,2 B,,2 D,2 D,2 | G,4 G,2 C,2 | D,2 D,2 D,2 D,2 |[M:3/4] G,,4 z2 |] %17

